svgs/sharp-regular/rectangle-terminal.svg

<svg xmlns="http://www.w3.org/2000/svg" viewBox="0 0 512 512"><!--! Font Awesome Pro 6.6.0 by @fontawesome - https://fontawesome.com License - https://fontawesome.com/license (Commercial License) Copyright 2024 Fonticons, Inc. --><path d="M464 80l0 352L48 432 48 80l416 0zM48 32L0 32 0 80 0 432l0 48 48 0 416 0 48 0 0-48 0-352 0-48-48 0L48 32zM86.1 169.5l17.7 16.2L180.5 256l-76.7 70.3L86.1 342.5l32.4 35.4 17.7-16.2 96-88L251.5 256l-19.3-17.7-96-88-17.7-16.2L86.1 169.5zM248 336l-24 0 0 48 24 0 144 0 24 0 0-48-24 0-144 0z"/></svg>

<svg xmlns="http://www.w3.org/2000/svg" viewBox="0 0 512 512"><!--! Font Awesome Pro 6.4.2 by @fontawesome - https://fontawesome.com License - https://fontawesome.com/license (Commercial License) Copyright 2023 Fonticons, Inc. --><path d="M464 80V432H48V80H464zM48 32H0V80 432v48H48 464h48V432 80 32H464 48zM86.1 169.5l17.7 16.2L180.5 256l-76.7 70.3L86.1 342.5l32.4 35.4 17.7-16.2 96-88L251.5 256l-19.3-17.7-96-88-17.7-16.2L86.1 169.5zM248 336H224v48h24H392h24V336H392 248z"/></svg>
